X: 1
T: the Cat's Meow
C: Joanie Madden
R: jig
D: "Blue-Eyed Rascal", Siobhan and Una Hogan
D: "Brid Harper’s" Tulach Boylan’s "Tidy Cottage" CD
M: 6/8
L: 1/8
K: D
A |\
DFA d2e | fdB BAF | B2B BAF | dAF EFE |\
DFA d2e | fdB BAF | B/c/de fdB | AFE D2 :|
|: e |\
fdB AFA | DFA dfa | g2g ged | ced cBA |\
fdB AFA | DFA dfa | g2g age | edc d2 :|
|: B |\
Adf a3  | agf agf | Ace g3 | gfe gfe |\
f2f gfg | aga bag | f/g/af gec | edc d2 :|
